docs/assets/img/baseweb-box-white.svg

<svg xmlns="http://www.w3.org/2000/svg" viewBox="0 0 36 25"><path fill="#FFF" d="M35.6 18.5L31 16.4l4.6-2.1c.2-.1.4-.3.4-.6 0-.2-.1-.5-.4-.6l-5.4-2.5V5.9c0-.1 0-.2-.1-.3 0-.1-.1-.1-.2-.2h-.1L18.3.1c-.2-.1-.4-.1-.5 0L6.2 5.3h-.1c-.1.2-.2.2-.2.3 0 .1-.1.2-.1.3v4.9L.4 13.3c-.3.1-.4.3-.4.5s.1.5.4.6L5 16.5.4 18.6c-.3 0-.4.3-.4.5s.1.5.4.6L12 25c.1 0 .2.1.3.1s.2 0 .3-.1l5.5-2.5 5.5 2.5c.1 0 .2.1.3.1.1 0 .2 0 .3-.1l11.6-5.3c.2-.1.4-.3.4-.6-.2-.2-.3-.5-.6-.6zm-11.8 5.2l-4.3-2 10.1-4.6 4.3 2-10.1 4.6zM29 6.9v9.2l-10.3 4.7v-9.2L29 6.9zm-.9-1L23.5 8 18 10.5l-1.6-.7-2.7-1.2L23.8 4l4.3 1.9zm2.1 6.2l3.7 1.7-3.7 1.7v-3.4zm-18-4.2l-4.3-2L18 1.3l4.3 2-10.1 4.6zm5.2 3.7v9.2L7 16.1V6.9l10.4 4.7zM5.8 15.5l-3.7-1.7 3.7-1.7v3.4zm.6 1.6l10.1 4.6-4.3 2-10.1-4.6 4.3-2z"/></svg>

<?xml version="1.0" encoding="utf-8"?>
<!-- Generator: Adobe Illustrator 18.0.0, SVG Export Plug-In . SVG Version: 6.00 Build 0)  -->
<!DOCTYPE svg PUBLIC "-//W3C//DTD SVG 1.1//EN" "http://www.w3.org/Graphics/SVG/1.1/DTD/svg11.dtd">
<svg version="1.1" id="Layer_1" xmlns="http://www.w3.org/2000/svg" xmlns:xlink="http://www.w3.org/1999/xlink" x="0px" y="0px"
	 viewBox="0 0 36 25" enable-background="new 0 0 36 25" xml:space="preserve">
<path fill="#FFFFFF" d="M35.6,18.5l-4.6-2.1l4.6-2.1c0.2-0.1,0.4-0.3,0.4-0.6c0-0.2-0.1-0.5-0.4-0.6l-5.4-2.5V5.9
	c0-0.1,0-0.2-0.1-0.3c0,0,0,0,0,0c0-0.1-0.1-0.1-0.2-0.2c0,0,0,0,0,0c0,0,0,0,0,0c0,0,0,0-0.1,0L18.3,0.1c-0.2-0.1-0.4-0.1-0.5,0
	L6.2,5.3c0,0,0,0-0.1,0c0,0,0,0,0,0c0,0,0,0,0,0C6,5.5,5.9,5.5,5.9,5.6c0,0,0,0,0,0c0,0.1-0.1,0.2-0.1,0.3v4.9l-5.4,2.5
	C0.1,13.4,0,13.6,0,13.8c0,0.2,0.1,0.5,0.4,0.6l4.6,2.1l-4.6,2.1C0.1,18.6,0,18.9,0,19.1c0,0.2,0.1,0.5,0.4,0.6l11.6,5.3
	c0.1,0,0.2,0.1,0.3,0.1s0.2,0,0.3-0.1l5.5-2.5l5.5,2.5c0.1,0,0.2,0.1,0.3,0.1c0.1,0,0.2,0,0.3-0.1l11.6-5.3c0.2-0.1,0.4-0.3,0.4-0.6
	C36,18.9,35.9,18.6,35.6,18.5z M23.8,23.7l-4.3-2l10.1-4.6l4.3,2L23.8,23.7z M29,6.9v9.2l-10.3,4.7v-9.2L29,6.9z M28.1,5.9L23.5,8
	c0,0,0,0,0,0L18,10.5l-1.6-0.7l-2.7-1.2l10.1-4.6L28.1,5.9z M30.2,12.1l3.7,1.7l-3.7,1.7V12.1z M12.2,7.9l-4.3-2L18,1.3l4.3,2
	L12.2,7.9z M17.4,11.6v9.2L7,16.1V6.9L17.4,11.6z M5.8,15.5l-3.7-1.7l3.7-1.7V15.5z M6.4,17.1l10.1,4.6l-4.3,2L2.1,19.1L6.4,17.1z"
	/>
</svg>
